;FLAVOR:Marlin
;TIME:3639
;Filament used: 2.85592m
;Layer height: 0.2
;MINX:75.2
;MINY:85.2
;MINZ:0.3
;MAXX:134.8
;MAXY:124.8
;MAXZ:3.975
;Generated with Cura_SteamEngine 4.10.0
M82 ;absolute extrusion mode
G21                                        ; metric values 
G90                                        ; absolute positioning 
M82                                        ; set extruder to absolute mode 
M107                                       ; start with the fan off 
M140 S60           ; Start heating the bed 
G4 S60                                     ; wait 1 minute 
M104 S210         ; start heating the hot end 
M190 S60           ; wait for bed 
M109 S210         ; wait for hotend 
M300 S1000 P500                            ; BEEP heating done 
G28 X0 Y10 Z0                              ; move X/Y to min endstops 
M420 S1                                    ; Enable leveling 
M420 Z2.0                                  ; Set leveling fading height to 2 mm 
G0 Z0.15                                   ; lift nozzle a bit 
G92 E0                                     ; zero the extruded length 
G1 X50 E25 F500                            ; Extrude 25mm of filament in a 5cm line. 
G92 E0                                     ; zero the extruded length again 
G1 E-2 F500                                ; Retract a little 
G1 X120 F4000                              ; Quickly wipe away from the filament line`
G92 E0
G92 E0
G1 F1500 E-6
;LAYER_COUNT:20
;LAYER:0
M106 S76.5
M205 X10 Y10
G1 F600 Z0.375
;MESH:midi.stl
G0 F6000 X86.537 Y98.107 Z0.375
M205 X8 Y8
;TYPE:WALL-INNER
G1 F600 Z0.3
G1 F1500 E0
G1 F1200 X87.261 Y98.187 E0.03634
G1 X87.986 Y98.102 E0.07276
G1 X88.673 Y97.859 E0.10911
G1 X89.291 Y97.467 E0.14563
G1 X89.802 Y96.949 E0.18193
G1 X90.185 Y96.333 E0.21812
G1 X90.425 Y95.644 E0.25452
G1 X90.505 Y94.919 E0.29091
G1 X90.42 Y94.195 E0.32727
G1 X90.176 Y93.507 E0.36369
G1 X89.786 Y92.892 E0.40002
G1 X89.269 Y92.378 E0.4364
G1 X88.649 Y91.992 E0.47283
G1 X87.961 Y91.756 E0.50912
G1 X87.237 Y91.675 E0.54547
G1 X86.512 Y91.761 E0.58189
G1 X85.825 Y92.004 E0.61825
G1 X85.207 Y92.396 E0.65476
G1 X84.696 Y92.914 E0.69106
G1 X84.313 Y93.53 E0.72725
G1 X84.073 Y94.219 E0.76365
G1 X83.993 Y94.943 E0.79999
G1 X84.078 Y95.668 E0.83641
G1 X84.322 Y96.356 E0.87283
G1 X84.712 Y96.971 E0.90916
G1 X85.229 Y97.485 E0.94553
G1 X85.849 Y97.871 E0.98197
G1 X86.537 Y98.107 E1.01825
M205 X10 Y10
G0 F6000 X86.625 Y97.714
M205 X8 Y8
G1 F1200 X87.26 Y97.784 E1.05013
G1 X87.895 Y97.71 E1.08202
G1 X88.497 Y97.497 E1.11388
G1 X89.038 Y97.154 E1.14584
G1 X89.486 Y96.7 E1.17766
G1 X89.822 Y96.16 E1.20939
G1 X90.032 Y95.555 E1.24134
G1 X90.102 Y94.92 E1.27321
G1 X90.028 Y94.286 E1.30506
G1 X89.814 Y93.683 E1.33698
G1 X89.472 Y93.144 E1.36882
G1 X89.019 Y92.694 E1.40068
G1 X88.476 Y92.356 E1.43259
G1 X87.873 Y92.149 E1.4644
G1 X87.238 Y92.078 E1.49628
G1 X86.603 Y92.153 E1.52818
G1 X86.001 Y92.366 E1.56003
G1 X85.46 Y92.709 E1.59199
G1 X85.012 Y93.163 E1.62381
G1 X84.676 Y93.703 E1.65554
G1 X84.466 Y94.308 E1.68749
G1 X84.396 Y94.942 E1.71932
G1 X84.47 Y95.577 E1.75121
G1 X84.684 Y96.18 E1.78313
G1 X85.026 Y96.719 E1.81498
G1 X85.479 Y97.169 E1.84684
G1 X86.022 Y97.507 E1.87875
G1 X86.625 Y97.714 E1.91055
M205 X10 Y10
G0 F6000 X86.713 Y97.321
M205 X8 Y8
;TYPE:WALL-OUTER
G1 F1200 X87.259 Y97.381 E1.93796
G1 X87.804 Y97.318 E1.96533
G1 X88.321 Y97.135 E1.99269
G1 X88.785 Y96.841 E2.02009
G1 X89.17 Y96.451 E2.04744
G1 X89.459 Y95.987 E2.07471
G1 X89.639 Y95.467 E2.10216
G1 X89.699 Y94.921 E2.12956
G1 X89.636 Y94.377 E2.15689
G1 X89.452 Y93.859 E2.18431
G1 X89.158 Y93.396 E2.21167
G1 X88.769 Y93.01 E2.23901
G1 X88.303 Y92.72 E2.2664
G1 X87.785 Y92.542 E2.29372
G1 X87.239 Y92.481 E2.32113
G1 X86.694 Y92.545 E2.34851
G1 X86.177 Y92.728 E2.37587
G1 X85.713 Y93.022 E2.40328
G1 X85.328 Y93.412 E2.43062
G1 X85.039 Y93.876 E2.45789
G1 X84.859 Y94.396 E2.48534
G1 X84.799 Y94.941 E2.5127
G1 X84.862 Y95.486 E2.54007
G1 X85.046 Y96.004 E2.56749
G1 X85.34 Y96.467 E2.59486
G1 X85.729 Y96.853 E2.6222
G1 X86.195 Y97.143 E2.64958
G1 X86.713 Y97.321 E2.67691
M205 X10 Y10
G0 F6000 X86.911 Y97.342
G0 X86.862 Y97.779
G1 F1500 E-3.32309
G1 F600 Z0.375
G0 F6000 X84 Y107.25 Z0.375
M205 X8 Y8
;TYPE:WALL-INNER
G1 F600 Z0.3
G1 F1500 E2.67691
G1 F1200 X84 Y112.75 E2.9513
G1 X95.907 Y112.75 E3.54535
G1 X96.08 Y113.269 E3.57264
G1 X96.285 Y113.782 E3.6002
G1 X96.52 Y114.282 E3.62776
G1 X96.783 Y114.768 E3.65533
G1 X97.073 Y115.238 E3.68289
G1 X97.393 Y115.69 E3.71051
G1 X97.736 Y116.123 E3.73807
G1 X98.105 Y116.534 E3.76563
G1 X98.496 Y116.925 E3.79322
G1 X98.908 Y117.289 E3.82065
G1 X99.327 Y117.621 E3.84732
G1 X99.797 Y117.948 E3.87588
G1 X100.266 Y118.237 E3.90337
G1 X100.755 Y118.499 E3.93104
G1 X101.256 Y118.732 E3.95861
G1 X101.77 Y118.933 E3.98614
G1 X102.294 Y119.107 E4.01369
G1 X102.829 Y119.25 E4.04132
G1 X103.353 Y119.356 E4.06799
G1 X103.915 Y119.437 E4.09632
G1 X104.448 Y119.486 E4.12302
G1 X105.02 Y119.5 E4.15157
G1 X105.572 Y119.483 E4.17912
G1 X106.125 Y119.434 E4.20682
G1 X106.671 Y119.352 E4.23436
G1 X107.211 Y119.239 E4.26189
G1 X107.745 Y119.095 E4.28948
G1 X108.269 Y118.92 E4.31704
G1 X108.782 Y118.715 E4.3446
G1 X109.282 Y118.48 E4.37217
G1 X109.768 Y118.217 E4.39974
G1 X110.238 Y117.927 E4.42729
G1 X110.69 Y117.607 E4.45492
G1 X111.123 Y117.264 E4.48248
G1 X111.534 Y116.895 E4.51003
G1 X111.925 Y116.504 E4.53762
G1 X112.289 Y116.092 E4.56505
G1 X112.621 Y115.673 E4.59172
G1 X112.948 Y115.203 E4.62028
G1 X113.237 Y114.734 E4.64777
G1 X113.499 Y114.245 E4.67545
G1 X113.732 Y113.744 E4.70301
G1 X113.933 Y113.23 E4.73055
G1 X114.092 Y112.75 E4.75577
G1 X126 Y112.75 E5.34987
G1 X126 Y107.25 E5.62426
G1 X114.093 Y107.25 E6.2183
G1 X113.92 Y106.731 E6.2456
G1 X113.715 Y106.218 E6.27316
G1 X113.48 Y105.718 E6.30072
G1 X113.217 Y105.232 E6.32829
G1 X112.927 Y104.762 E6.35584
G1 X112.607 Y104.31 E6.38347
G1 X112.264 Y103.877 E6.41103
G1 X111.895 Y103.466 E6.43859
G1 X111.504 Y103.075 E6.46618
G1 X111.092 Y102.711 E6.4936
G1 X110.673 Y102.379 E6.52027
G1 X110.203 Y102.052 E6.54884
G1 X109.734 Y101.763 E6.57632
G1 X109.245 Y101.501 E6.604
G1 X108.744 Y101.268 E6.63157
G1 X108.23 Y101.067 E6.6591
G1 X107.706 Y100.893 E6.68665
G1 X107.171 Y100.75 E6.71428
G1 X106.647 Y100.644 E6.74095
G1 X106.085 Y100.563 E6.76928
G1 X105.552 Y100.514 E6.79598
G1 X104.98 Y100.5 E6.82453
G1 X104.428 Y100.517 E6.85208
G1 X103.875 Y100.566 E6.87978
G1 X103.329 Y100.648 E6.90732
G1 X102.789 Y100.761 E6.93485
G1 X102.255 Y100.905 E6.96244
G1 X101.731 Y101.08 E6.99
G1 X101.218 Y101.285 E7.01756
G1 X100.718 Y101.52 E7.04512
G1 X100.232 Y101.783 E7.07269
G1 X99.762 Y102.073 E7.10025
G1 X99.31 Y102.393 E7.12788
G1 X98.877 Y102.736 E7.15544
G1 X98.466 Y103.105 E7.18299
G1 X98.075 Y103.496 E7.21058
G1 X97.711 Y103.908 E7.23801
G1 X97.379 Y104.327 E7.26468
G1 X97.052 Y104.797 E7.29324
G1 X96.763 Y105.266 E7.32073
G1 X96.501 Y105.755 E7.3484
G1 X96.268 Y106.256 E7.37597
G1 X96.067 Y106.77 E7.4035
G1 X95.908 Y107.25 E7.42873
G1 X84 Y107.25 E8.02282
M205 X10 Y10
G0 F6000 X84.4 Y107.65
M205 X8 Y8
G1 F1200 X84.4 Y112.35 E8.25731
G1 X95.6 Y112.35 E8.81608
G1 X95.6 Y111.316 E8.86767
G1 X95.6 Y111.077 E8.87959
G1 X95.6 Y110.548 E8.90598
G1 X95.6 Y110.019 E8.93237
G1 X95.6 Y109.471 E8.95971
G1 X95.6 Y108.962 E8.98511
G1 X95.6 Y108.691 E8.99863
G1 X95.6 Y107.65 E9.05056
G1 X84.4 Y107.65 E9.60933
M205 X10 Y10
G0 F6000 X84.8 Y108.05
M205 X8 Y8
;TYPE:WALL-OUTER
G1 F1200 X84.8 Y111.95 E9.8039
G1 X95.2 Y111.95 E10.32276
G1 X95.2 Y108.05 E10.51733
G1 X84.8 Y108.05 E11.03619
M205 X10 Y10
G0 F6000 X84.8 Y108.25
G0 X84.36 Y108.25
G1 F1500 E5.03619
G1 F600 Z0.375
G0 F6000 X104.471 Y119.086 Z0.375
M205 X8 Y8
;TYPE:WALL-INNER
G1 F600 Z0.3
G1 F1500 E11.03619
G1 F1200 X105.019 Y119.1 E11.06354
G1 X105.548 Y119.084 E11.08995
G1 X106.077 Y119.037 E11.11644
G1 X106.6 Y118.958 E11.14283
G1 X107.118 Y118.85 E11.16923
G1 X107.629 Y118.712 E11.19564
G1 X108.131 Y118.544 E11.22205
G1 X108.623 Y118.348 E11.24847
G1 X109.102 Y118.123 E11.27487
G1 X109.567 Y117.871 E11.30126
G1 X110.017 Y117.593 E11.32765
G1 X110.45 Y117.287 E11.3541
G1 X110.865 Y116.958 E11.38052
G1 X111.259 Y116.605 E11.40691
G1 X111.633 Y116.23 E11.43334
G1 X111.982 Y115.835 E11.45963
G1 X112.3 Y115.434 E11.48517
G1 X112.613 Y114.984 E11.51251
G1 X112.89 Y114.534 E11.53888
G1 X113.141 Y114.066 E11.56537
G1 X113.364 Y113.587 E11.59173
G1 X113.557 Y113.094 E11.61814
G1 X113.724 Y112.591 E11.64459
G1 X113.86 Y112.08 E11.67097
G1 X113.962 Y111.579 E11.69647
G1 X114.002 Y111.306 E11.71024
G1 X114.04 Y111.038 E11.72374
G1 X114.086 Y110.529 E11.74924
G1 X114.1 Y109.981 E11.77659
G1 X114.084 Y109.452 E11.80299
G1 X114.037 Y108.923 E11.82949
G1 X114.002 Y108.687 E11.84139
G1 X113.958 Y108.4 E11.85588
G1 X113.85 Y107.882 E11.88228
G1 X113.712 Y107.371 E11.90869
G1 X113.544 Y106.869 E11.9351
G1 X113.348 Y106.377 E11.96152
G1 X113.123 Y105.898 E11.98792
G1 X112.871 Y105.433 E12.01431
G1 X112.593 Y104.983 E12.0407
G1 X112.287 Y104.55 E12.06715
G1 X111.958 Y104.135 E12.09357
G1 X111.605 Y103.741 E12.11996
G1 X111.23 Y103.367 E12.14638
G1 X110.835 Y103.018 E12.17268
G1 X110.434 Y102.7 E12.19821
G1 X109.984 Y102.387 E12.22556
G1 X109.534 Y102.11 E12.25193
G1 X109.066 Y101.859 E12.27842
G1 X108.587 Y101.636 E12.30478
G1 X108.094 Y101.443 E12.33119
G1 X107.591 Y101.276 E12.35764
G1 X107.08 Y101.14 E12.38402
G1 X106.579 Y101.038 E12.40952
G1 X106.038 Y100.96 E12.43679
G1 X105.529 Y100.914 E12.46229
G1 X104.981 Y100.9 E12.48964
G1 X104.452 Y100.916 E12.51604
G1 X103.923 Y100.963 E12.54254
G1 X103.4 Y101.042 E12.56893
G1 X102.882 Y101.15 E12.59533
G1 X102.371 Y101.288 E12.62173
G1 X101.869 Y101.456 E12.64815
G1 X101.377 Y101.652 E12.67457
G1 X100.898 Y101.877 E12.70097
G1 X100.433 Y102.129 E12.72736
G1 X99.983 Y102.407 E12.75375
G1 X99.55 Y102.713 E12.7802
G1 X99.135 Y103.042 E12.80662
G1 X98.741 Y103.395 E12.83301
G1 X98.367 Y103.77 E12.85943
G1 X98.018 Y104.165 E12.88573
G1 X97.7 Y104.566 E12.91126
G1 X97.387 Y105.016 E12.93861
G1 X97.11 Y105.466 E12.96497
G1 X96.859 Y105.934 E12.99147
G1 X96.636 Y106.413 E13.01783
G1 X96.443 Y106.906 E13.04424
G1 X96.276 Y107.409 E13.07068
G1 X96.14 Y107.92 E13.09707
G1 X96.038 Y108.421 E13.12257
G1 X95.998 Y108.694 E13.13634
G1 X95.96 Y108.962 E13.14918
G1 X95.914 Y109.471 E13.17073
G1 X95.9 Y110.019 E13.19177
G1 X95.916 Y110.548 E13.21216
G1 X95.963 Y111.077 E13.23471
G1 X95.998 Y111.313 E13.24608
G1 X96.042 Y111.6 E13.26056
G1 X96.15 Y112.118 E13.28696
G1 X96.288 Y112.629 E13.31337
G1 X96.456 Y113.131 E13.33978
G1 X96.652 Y113.623 E13.3662
G1 X96.877 Y114.102 E13.3926
G1 X97.129 Y114.567 E13.41899
G1 X97.407 Y115.017 E13.44538
G1 X97.713 Y115.45 E13.47183
G1 X98.042 Y115.865 E13.49825
G1 X98.395 Y116.259 E13.52465
G1 X98.77 Y116.633 E13.55107
G1 X99.165 Y116.982 E13.57737
G1 X99.566 Y117.3 E13.6029
G1 X100.016 Y117.613 E13.63025
G1 X100.466 Y117.89 E13.65661
G1 X100.934 Y118.141 E13.6831
G1 X101.413 Y118.364 E13.70946
G1 X101.906 Y118.557 E13.73588
G1 X102.409 Y118.724 E13.76232
G1 X102.92 Y118.86 E13.7887
G1 X103.421 Y118.962 E13.81421
G1 X103.962 Y119.04 E13.84148
G1 X104.471 Y119.086 E13.86698
M205 X10 Y10
G0 F6000 X104.494 Y118.686
M205 X8 Y8
;TYPE:WALL-OUTER
G1 F1200 X105.018 Y118.7 E13.89313
G1 X105.524 Y118.685 E13.91838
G1 X106.029 Y118.64 E13.94368
G1 X106.529 Y118.564 E13.96891
G1 X107.025 Y118.461 E13.99418
G1 X107.513 Y118.329 E14.0194
G1 X107.993 Y118.168 E14.04466
G1 X108.464 Y117.981 E14.06994
G1 X108.921 Y117.766 E14.09514
G1 X109.366 Y117.525 E14.12039
G1 X109.796 Y117.259 E14.14562
G1 X110.21 Y116.967 E14.17089
G1 X110.607 Y116.652 E14.19617
G1 X110.984 Y116.315 E14.2214
G1 X111.341 Y115.956 E14.24666
G1 X111.675 Y115.578 E14.27183
G1 X111.979 Y115.195 E14.29622
G1 X112.278 Y114.765 E14.32235
G1 X112.543 Y114.334 E14.34759
G1 X112.783 Y113.887 E14.37291
G1 X112.996 Y113.429 E14.39811
G1 X113.181 Y112.958 E14.42335
G1 X113.34 Y112.477 E14.44863
G1 X113.47 Y111.988 E14.47387
G1 X113.568 Y111.51 E14.49821
G1 X113.643 Y110.992 E14.52433
G1 X113.686 Y110.506 E14.54867
G1 X113.7 Y109.982 E14.57482
G1 X113.685 Y109.476 E14.60007
G1 X113.64 Y108.971 E14.62537
G1 X113.564 Y108.471 E14.6506
G1 X113.461 Y107.975 E14.67587
G1 X113.329 Y107.487 E14.70109
G1 X113.168 Y107.007 E14.72635
G1 X112.981 Y106.536 E14.75164
G1 X112.766 Y106.079 E14.77683
G1 X112.525 Y105.634 E14.80208
G1 X112.259 Y105.204 E14.82731
G1 X111.967 Y104.79 E14.85258
G1 X111.652 Y104.393 E14.87787
G1 X111.315 Y104.016 E14.90309
G1 X110.956 Y103.659 E14.92835
G1 X110.578 Y103.325 E14.95352
G1 X110.195 Y103.021 E14.97791
G1 X109.765 Y102.722 E15.00404
G1 X109.334 Y102.457 E15.02928
G1 X108.887 Y102.217 E15.0546
G1 X108.429 Y102.004 E15.0798
G1 X107.958 Y101.819 E15.10504
G1 X107.477 Y101.66 E15.13032
G1 X106.988 Y101.53 E15.15556
G1 X106.51 Y101.432 E15.1799
G1 X105.992 Y101.357 E15.20602
G1 X105.506 Y101.314 E15.23036
G1 X104.982 Y101.3 E15.25651
G1 X104.476 Y101.315 E15.28177
G1 X103.971 Y101.36 E15.30706
G1 X103.471 Y101.436 E15.33229
G1 X102.975 Y101.539 E15.35756
G1 X102.487 Y101.671 E15.38279
G1 X102.007 Y101.832 E15.40804
G1 X101.536 Y102.019 E15.43333
G1 X101.079 Y102.234 E15.45852
G1 X100.634 Y102.475 E15.48377
G1 X100.204 Y102.741 E15.509
G1 X99.79 Y103.033 E15.53427
G1 X99.393 Y103.348 E15.55956
G1 X99.016 Y103.685 E15.58478
G1 X98.659 Y104.044 E15.61004
G1 X98.325 Y104.422 E15.63521
G1 X98.021 Y104.805 E15.6596
G1 X97.722 Y105.235 E15.68573
G1 X97.457 Y105.666 E15.71098
G1 X97.217 Y106.113 E15.73629
G1 X97.004 Y106.571 E15.76149
G1 X96.819 Y107.042 E15.78673
G1 X96.66 Y107.523 E15.81201
G1 X96.53 Y108.012 E15.83725
G1 X96.432 Y108.49 E15.8616
G1 X96.357 Y109.008 E15.88771
G1 X96.314 Y109.494 E15.91205
G1 X96.3 Y110.018 E15.9382
G1 X96.315 Y110.524 E15.96346
G1 X96.36 Y111.029 E15.98875
G1 X96.436 Y111.529 E16.01398
G1 X96.539 Y112.025 E16.03926
G1 X96.671 Y112.513 E16.06448
G1 X96.832 Y112.993 E16.08974
G1 X97.019 Y113.464 E16.11502
G1 X97.234 Y113.921 E16.14022
G1 X97.475 Y114.366 E16.16546
G1 X97.741 Y114.796 E16.19069
G1 X98.033 Y115.21 E16.21596
G1 X98.348 Y115.607 E16.24125
G1 X98.685 Y115.984 E16.26648
G1 X99.044 Y116.341 E16.29173
G1 X99.422 Y116.675 E16.3169
G1 X99.805 Y116.979 E16.3413
G1 X100.235 Y117.278 E16.36743
G1 X100.666 Y117.543 E16.39267
G1 X101.113 Y117.783 E16.41798
G1 X101.571 Y117.996 E16.44318
G1 X102.042 Y118.181 E16.46843
G1 X102.523 Y118.34 E16.4937
G1 X103.012 Y118.47 E16.51894
G1 X103.49 Y118.568 E16.54329
G1 X104.008 Y118.643 E16.5694
G1 X104.494 Y118.686 E16.59374
M205 X10 Y10
G0 F6000 X104.694 Y118.691
G0 X104.682 Y119.131
G1 F1500 E10.59374
G1 F600 Z0.375
G0 F6000 X122.037 Y98.176 Z0.375
M205 X8 Y8
;TYPE:WALL-INNER
G1 F600 Z0.3
G1 F1500 E16.59374
G1 F1200 X122.762 Y98.256 E16.63013
G1 X123.487 Y98.171 E16.66655
G1 X124.174 Y97.927 E16.70292
G1 X124.79 Y97.537 E16.73929
G1 X125.303 Y97.018 E16.7757
G1 X125.686 Y96.401 E16.81193
G1 X125.926 Y95.713 E16.84829
G1 X126.006 Y94.988 E16.88468
G1 X125.921 Y94.263 E16.92109
G1 X125.677 Y93.576 E16.95747
G1 X125.287 Y92.96 E16.99384
G1 X124.768 Y92.447 E17.03025
G1 X124.151 Y92.064 E17.06648
G1 X123.463 Y91.824 E17.10283
G1 X122.738 Y91.744 E17.13922
G1 X122.013 Y91.829 E17.17564
G1 X121.326 Y92.073 E17.21201
G1 X120.71 Y92.463 E17.24838
G1 X120.197 Y92.982 E17.28479
G1 X119.814 Y93.599 E17.32102
G1 X119.574 Y94.287 E17.35738
G1 X119.494 Y95.012 E17.39377
G1 X119.579 Y95.737 E17.43018
G1 X119.823 Y96.424 E17.46656
G1 X120.213 Y97.04 E17.50293
G1 X120.732 Y97.553 E17.53934
G1 X121.349 Y97.936 E17.57557
G1 X122.037 Y98.176 E17.61192
M205 X10 Y10
G0 F6000 X122.126 Y97.783
M205 X8 Y8
G1 F1200 X122.761 Y97.853 E17.64379
G1 X123.396 Y97.779 E17.67569
G1 X123.998 Y97.565 E17.70756
G1 X124.538 Y97.223 E17.73945
G1 X124.987 Y96.769 E17.77131
G1 X125.323 Y96.228 E17.80308
G1 X125.533 Y95.624 E17.83498
G1 X125.603 Y94.989 E17.86686
G1 X125.529 Y94.354 E17.89875
G1 X125.315 Y93.752 E17.93063
G1 X124.973 Y93.212 E17.96251
G1 X124.519 Y92.763 E17.99437
G1 X123.978 Y92.427 E18.02614
G1 X123.374 Y92.217 E18.05805
G1 X122.739 Y92.147 E18.08992
G1 X122.104 Y92.221 E18.12181
